svgs/sharp-solid/cassette-betamax.svg

<svg xmlns="http://www.w3.org/2000/svg" viewBox="0 0 576 512"><!--! Font Awesome Pro 6.6.0 by @fontawesome - https://fontawesome.com License - https://fontawesome.com/license (Commercial License) Copyright 2024 Fonticons, Inc. --><path d="M576 32L0 32l0 96 576 0 0-96zm0 128L0 160 0 480l576 0 0-320zM192 320a32 32 0 1 0 -64 0 32 32 0 1 0 64 0zM64 320a96 96 0 1 1 192 0A96 96 0 1 1 64 320zm256-96l192 0 0 192-192 0 0-192z"/></svg>

<svg xmlns="http://www.w3.org/2000/svg" viewBox="0 0 576 512"><!--! Font Awesome Pro 6.4.2 by @fontawesome - https://fontawesome.com License - https://fontawesome.com/license (Commercial License) Copyright 2023 Fonticons, Inc. --><path d="M576 32H0v96H576V32zm0 128H0V480H576V160zM192 320a32 32 0 1 0 -64 0 32 32 0 1 0 64 0zM64 320a96 96 0 1 1 192 0A96 96 0 1 1 64 320zm256-96H512V416H320V224z"/></svg>
